X:1
T:I’m Happy in Jesus
T:I’m Happy in Jesus
T:Mabeth Kilgore
T:Mabeth Kilgore, 1920
T:Public Domain Courtesy of the Cyber Hymnal™
T:Public Domain Courtesy of the Cyber Hymnal™
C:Mabeth Kilgore
Z:Public Domain
Z:Courtesy of the Cyber Hymnal™
%%score 1 ( 2 3 )
L:1/8
Q:1/4=100
M:6/8
K:Ab
V:1 treble 
V:2 bass 
V:3 bass 
V:1
 [CE] | [Ec]2 [Ec] [=D=B]2 [DB] | [Ec]3 [CA]2 [CE] | [DF]2 [FA] [Fd]2 [Fd] | [Ec]3- [Ec]2 [Ec] | %5
w: 1.~I|love the name of|Je- sus, ’tis|pre- cious to re-|peat; * His|
w: 2.~My|path seemed dark as|mid- night, the|surg- es seemed to|roll; * I|
w: 3.~I’m|hap- py now in|Je- sus, His|blood has made me|free; * The|
 [EB]2 [EB] [Ec]2 [A=d] | [Ge]2 [Ec] [EB]2 [Ec] | ([EG][EG])[EG] [=DA]2 [DF] | [EB]3- [EB]2 [DE] | %9
w: love to me is|won- der- ful, with|rest * and peace com-|plete. * When|
w: knew e- ter- ni-|ty was long, and|nothing * could save my|soul. * ’Twas|
w: pen- al- ty for|sin He paid, when|hanging * up- on the|tree. * Come|
 [Cc]2 [Ec] [DB]2 [CA] | [DG]3 [Dd]2 [EG] | [EG]2 [DF] [DE]2 [Ed] | [Ec]3- [Ec]2 [CE] | %13
w: in the time of|tri- al He|bids my sha- dows|flee, * And|
w: then the Sav- ior|found me, and|washed my sins a-|way; * He|
w: now, for you may|trust Him, and|give to Him your|heart; * He|
 [DF]2 [DF] [DG]2 [DG] | [CA]2 [CA] [Ee]2 [Fd] | [Ec][Ed][Ec] [Ec]2 [DB] | [CA]3- [CA]2 || %17
w: drives a- way all|doubt and fear, By|say- ing, “Come un- to|Me.” *|
w: filled my soul with|joy and peace; I’m|hap- py, yes, night and|day. *|
w: stands with lov- ing|out- stretched hands, And|longs to His love im-|part. *|
"^Refrain" [CE] | [CE][CF][CG] [EA][EG][EA] | [Ed]2 [Fd] [Ed]2 [DE] | [CE][CF][CG] [Cc][DG][CA] | %21
w: ||||
w: I’m|hap- py in Je- sus, He|makes me whole, I’m|hap- py in Je- sus, He|
w: ||||
 [Ec]2 [Ec] [Ec]2 [CE] | [CE][DF][EG] [EA][EG][EA] | [DF][EG][EA] [Ed][Ec][_Ge] | %24
w: |||
w: saves my soul; I’m|hap- py in Je- sus from|morn- ing till even- ing, For|
w: |||
 [Fe][Fd][Ec] ([DB]!fermata![Ec])[DB] | [CA]3- [CA]2 |] %26
w: ||
w: Je- sus has made * me|whole. *|
w: ||
V:2
 [A,,A,] | [A,,A,]2 [A,,A,] [A,,F,]2 [A,,F,] | [A,,E,]3 [A,,E,]2 [A,,A,] | %3
 [D,A,]2 [D,A,] [D,A,]2 [D,A,] | [A,,A,]3- [A,,A,]2 [A,,A,] | [E,G,]2 [E,G,] A,2 [F,B,] | %6
 [E,B,]2 [E,A,] [E,G,]2 [A,,A,] | ([B,,E,][B,,G,])[B,,B,] [B,,B,]2 [A,B,] | %8
 [G,B,]3 [E,G,]2 [E,G,] | [A,,A,]2 [A,,A,] [E,G,]2 [E,A,] | [E,B,]3 [E,G,]2 [E,G,] | %11
 [E,B,]2 [E,A,] [E,G,]2 [G,B,] | A,3- A,2 [A,,A,] | [D,A,]2 [B,,B,] [E,B,]2 [E,B,] | %14
 [F,A,]2 [F,A,] [C,A,]2 [D,A,] | [E,A,][E,B,][E,A,] [E,G,]2 E, | [A,,-E,]3 [A,,A,]2 || [A,,A,] | %18
 [A,,E,][A,,E,][A,,E,] [C,A,][C,A,][_C,A,] | [B,,G,]2 [E,A,] [E,G,]2 [E,G,] | %20
 [A,,A,][A,,A,][A,,A,] [A,,E,][B,,E,][A,,E,] | [A,,A,]2 [A,,A,] [A,,A,]2 [A,,A,] | %22
 [A,,A,][D,A,][D,B,] [C,A,][C,A,][C,A,] | [D,A,][D,B,][C,A,] [B,,G,][A,,A,][B,,A,] | %24
 [D,A,][D,A,][E,A,] !fermata![E,G,]2 [E,G,] | [A,,A,]3- [A,,A,]2 |] %26
V:3
 x | x6 | x6 | x6 | x6 | x3 A,2 x | x6 | x6 | x6 | x6 | x6 | x6 | A,3- A,2 x | x6 | x6 | x5 E, | %16
 x5 || x | x6 | x6 | x6 | x6 | x6 | x6 | x6 | x5 |] %26

